svg/checked_2.svg

<svg xmlns="http://www.w3.org/2000/svg" viewBox="0 0 32 32" enable-background="new 0 0 32 32"><path d="M 4 4 L 4 28 L 28 28 L 28 12.1875 L 26 14.1875 L 26 26 L 6 26 L 6 6 L 25.8125 6 L 27.8125 4 L 4 4 z M 27.28125 7.28125 L 16 18.5625 L 11.71875 14.28125 L 10.28125 15.71875 L 15.28125 20.71875 L 16 21.40625 L 16.71875 20.71875 L 28.71875 8.71875 L 27.28125 7.28125 z" color="#000" overflow="visible" enable-background="accumulate"/></svg>

<svg xmlns="http://www.w3.org/2000/svg" viewBox="0 0 32 32"><path style="text-indent:0;text-align:start;line-height:normal;text-transform:none;block-progression:tb;-inkscape-font-specification:Bitstream Vera Sans" d="M4 4v24h24V12.187l-2 2V26H6V6h19.813l2-2H4zm23.28 3.28L16 18.563l-4.28-4.28-1.44 1.437 5 5 .72.686.72-.687 12-12-1.44-1.44z" color="#000" overflow="visible" font-family="Bitstream Vera Sans"/></svg>
